assets/git.svg

<svg fill="none" height="40" viewBox="0 0 40 40" width="40" xmlns="http://www.w3.org/2000/svg" xmlns:xlink="http://www.w3.org/1999/xlink"><clipPath id="a"><path d="m0 0h40v40h-40z"/></clipPath><g clip-path="url(#a)"><path d="m40 20c0-11.0457-8.9543-20-20-20s-20 8.9543-20 20 8.9543 20 20 20 20-8.9543 20-20z" fill="#f55d3e"/><path d="m27.5 15.0002c-.0002-.4675-.1316-.9256-.3791-1.3223-.2475-.3966-.6013-.7159-1.0211-.9215-.4199-.2057-.889-.2895-1.3541-.242-.4651.0476-.9076.2246-1.2771.511-.3696.2864-.6514.6707-.8135 1.1092-.1621.4386-.198.9138-.1036 1.3717s.3153.8801.6376 1.2188c.3224.3386.7332.5801 1.1859.697v.7031c0 .3315-.1317.6495-.3661.8839s-.5524.3661-.8839.3661h-5.625c-.4391-.0005-.8705.1157-1.25.3367v-2.2898c.5892-.1521 1.1026-.5139 1.4441-1.0175s.4877-1.1145.411-1.7181c-.0767-.6037-.3709-1.1586-.8274-1.5609-.4566-.4022-1.0442-.6241-1.6527-.6241s-1.1961.2219-1.6526.6241c-.4566.4023-.7508.9572-.8275 1.5609-.0766.6036.0695 1.2145.411 1.7181s.8549.8654 1.4441 1.0175v5.1562c-.5892.1522-1.1026.5139-1.4441 1.0175s-.4876 1.1145-.411 1.7182c.0767.6036.3709 1.1585.8275 1.5608.4565.4022 1.0441.6241 1.6526.6241s1.1961-.2219 1.6527-.6241c.4565-.4023.7507-.9572.8274-1.5608.0767-.6037-.0695-1.2146-.411-1.7182s-.8549-.8653-1.4441-1.0175v-.7031c0-.3315.1317-.6495.3661-.8839s.5524-.3661.8839-.3661h5.625c.663 0 1.2989-.2634 1.7678-.7322.4688-.4689.7322-1.1048.7322-1.7678v-.7031c.5365-.1394 1.0115-.4527 1.3508-.891.3393-.4382.5237-.9766.5242-1.5309zm-13.125 0c0-.2472.0733-.4889.2107-.6945.1373-.2055.3325-.3657.561-.4603.2284-.0947.4797-.1194.7222-.0712.2424.0483.4652.1673.64.3421s.2939.3976.3421.64c.0482.2425.0235.4939-.0711.7223-.0947.2284-.2549.4236-.4604.5609-.2056.1374-.4473.2107-.6945.2107-.3315 0-.6495-.1317-.8839-.3661s-.3661-.5524-.3661-.8839zm2.5 10c0 .2472-.0733.4889-.2107.6945-.1373.2055-.3325.3657-.5609.4604-.2284.0946-.4798.1193-.7223.0711-.2424-.0482-.4652-.1673-.64-.3421s-.2938-.3976-.3421-.64c-.0482-.2425-.0235-.4938.0712-.7222.0946-.2285.2548-.4237.4603-.561.2056-.1374.4473-.2107.6945-.2107.3315 0 .6495.1317.8839.3661s.3661.5524.3661.8839zm8.125-8.75c-.2472 0-.4889-.0733-.6945-.2107-.2055-.1373-.3657-.3325-.4603-.5609-.0947-.2284-.1194-.4798-.0712-.7223.0483-.2424.1673-.4652.3421-.64s.3976-.2938.64-.3421c.2425-.0482.4939-.0235.7223.0712.2284.0946.4236.2548.5609.4603.1374.2056.2107.4473.2107.6945 0 .3315-.1317.6495-.3661.8839s-.5524.3661-.8839.3661z" fill="#fff"/></g></svg>

<svg width="40" height="40" viewBox="0 0 40 40" fill="none" xmlns="http://www.w3.org/2000/svg">
<g clip-path="url(#clip0_3368_39)">
<path d="M40 20C40 8.9543 31.0457 0 20 0C8.9543 0 0 8.9543 0 20C0 31.0457 8.9543 40 20 40C31.0457 40 40 31.0457 40 20Z" fill="#F55D3E"/>
<path d="M27.5 15.0002C27.4998 14.5327 27.3684 14.0746 27.1209 13.6779C26.8734 13.2813 26.5196 12.962 26.0998 12.7564C25.6799 12.5507 25.2108 12.4669 24.7457 12.5144C24.2806 12.562 23.8381 12.739 23.4686 13.0254C23.099 13.3118 22.8172 13.6961 22.6551 14.1346C22.493 14.5732 22.4571 15.0484 22.5515 15.5063C22.6459 15.9642 22.8668 16.3864 23.1891 16.7251C23.5115 17.0637 23.9223 17.3052 24.375 17.4221V18.1252C24.375 18.4567 24.2433 18.7747 24.0089 19.0091C23.7745 19.2435 23.4565 19.3752 23.125 19.3752H17.5C17.0609 19.3747 16.6295 19.4909 16.25 19.7119V17.4221C16.8392 17.27 17.3526 16.9082 17.6941 16.4046C18.0356 15.901 18.1818 15.2901 18.1051 14.6865C18.0284 14.0828 17.7342 13.5279 17.2777 13.1256C16.8211 12.7234 16.2335 12.5015 15.625 12.5015C15.0165 12.5015 14.4289 12.7234 13.9724 13.1256C13.5158 13.5279 13.2216 14.0828 13.1449 14.6865C13.0683 15.2901 13.2144 15.901 13.5559 16.4046C13.8974 16.9082 14.4108 17.27 15 17.4221V22.5783C14.4108 22.7305 13.8974 23.0922 13.5559 23.5958C13.2144 24.0994 13.0683 24.7103 13.1449 25.314C13.2216 25.9176 13.5158 26.4725 13.9724 26.8748C14.4289 27.277 15.0165 27.4989 15.625 27.4989C16.2335 27.4989 16.8211 27.277 17.2777 26.8748C17.7342 26.4725 18.0284 25.9176 18.1051 25.314C18.1818 24.7103 18.0356 24.0994 17.6941 23.5958C17.3526 23.0922 16.8392 22.7305 16.25 22.5783V21.8752C16.25 21.5437 16.3817 21.2257 16.6161 20.9913C16.8505 20.7569 17.1685 20.6252 17.5 20.6252H23.125C23.788 20.6252 24.4239 20.3618 24.8928 19.893C25.3616 19.4241 25.625 18.7882 25.625 18.1252V17.4221C26.1615 17.2827 26.6365 16.9694 26.9758 16.5311C27.3151 16.0929 27.4995 15.5545 27.5 15.0002ZM14.375 15.0002C14.375 14.753 14.4483 14.5113 14.5857 14.3057C14.723 14.1002 14.9182 13.94 15.1467 13.8454C15.3751 13.7507 15.6264 13.726 15.8689 13.7742C16.1113 13.8225 16.3341 13.9415 16.5089 14.1163C16.6837 14.2911 16.8028 14.5139 16.851 14.7563C16.8992 14.9988 16.8745 15.2502 16.7799 15.4786C16.6852 15.707 16.525 15.9022 16.3195 16.0395C16.1139 16.1769 15.8722 16.2502 15.625 16.2502C15.2935 16.2502 14.9755 16.1185 14.7411 15.8841C14.5067 15.6497 14.375 15.3317 14.375 15.0002ZM16.875 25.0002C16.875 25.2474 16.8017 25.4891 16.6643 25.6947C16.527 25.9002 16.3318 26.0604 16.1034 26.1551C15.875 26.2497 15.6236 26.2744 15.3811 26.2262C15.1387 26.178 14.9159 26.0589 14.7411 25.8841C14.5663 25.7093 14.4473 25.4865 14.399 25.2441C14.3508 25.0016 14.3755 24.7503 14.4702 24.5219C14.5648 24.2934 14.725 24.0982 14.9305 23.9609C15.1361 23.8235 15.3778 23.7502 15.625 23.7502C15.9565 23.7502 16.2745 23.8819 16.5089 24.1163C16.7433 24.3507 16.875 24.6687 16.875 25.0002ZM25 16.2502C24.7528 16.2502 24.5111 16.1769 24.3055 16.0395C24.1 15.9022 23.9398 15.707 23.8452 15.4786C23.7505 15.2502 23.7258 14.9988 23.774 14.7563C23.8223 14.5139 23.9413 14.2911 24.1161 14.1163C24.2909 13.9415 24.5137 13.8225 24.7561 13.7742C24.9986 13.726 25.25 13.7507 25.4784 13.8454C25.7068 13.94 25.902 14.1002 26.0393 14.3057C26.1767 14.5113 26.25 14.753 26.25 15.0002C26.25 15.3317 26.1183 15.6497 25.8839 15.8841C25.6495 16.1185 25.3315 16.2502 25 16.2502Z" fill="white"/>
</g>
<defs>
<clipPath id="clip0_3368_39">
<rect width="40" height="40" fill="white"/>
</clipPath>
</defs>
</svg>
